X:1
T:Title
%%score { ( 1 3 ) | ( 2 4 ) }
L:1/8
M:4/4
K:D
V:1 treble nm="Grand Piano"
V:3 treble 
V:2 bass 
V:4 bass 
V:1
 z4 z2 z[Q:1/4=100] D | F2 ED [FA]2 [GB][FA] | F2 ED F4 | [FA]2 [Fd][GB] [FA]2 F2 | %4
[M:7/8] E- E3 A2 z |[M:1/8] D |[M:4/4] F2 ED [FA]2 [GB][FA] | F2 ED F4 | E2 cc d2 B2 | [CA]6 z2 | %10
 A2 cd e2 dc | [Fd]2 [DF]2 [FA]4 | B2 BB B2 BB | z4 c4 | [Fd]2 [FA][FA] [FA]2 [=F^G][^FA] | %15
[M:5/4] [Ac]2 B2 d6 |[M:4/4] A2 AA [^Gd]2 [=Ge]2 |[M:7/8] [Fd]-[Fd]-[Fd]- [Fd]3 z |] %18
V:2
 z4 z2 z [D,F,] | [D,A,D]2 [D,G,D][D,F,] [D,D]2 [D,D][D,D] | [D,A,D]2 [D,G,D][D,F,] [D,A,D]4 | %3
 [D,D]2 [D,D][D,D] [D,D]2 [F,A,D]2 |[M:7/8] [A,C]-[A,C]-[A,C]- [A,C]3 z |[M:1/8] [D,F,] | %6
[M:4/4] [D,A,D]2 [D,G,D][D,F,] [D,D]2 [D,D][D,D] | [D,A,D]2 [D,G,D][D,F,] [D,A,D]4 | %8
 [E,A,C]2 [E,A,E][E,A,E] [E,^G,E]2 [E,G,D]2 | [A,,A,]6 z2 | %10
 [A,CG]2 [A,EG][A,DG] [A,CG]2 [A,EG][A,EG] | [D,D]2 [D,A,]2 [D,D]4 | %12
 [G,DG]2 [G,DG][G,DG] [G,DG]2 [G,DG][G,DG] | z4[K:treble] A2 z2 | %14
 [D,D]2 [D,D][D,D] [D,D]2 [D,D][D,D] |[M:5/4][K:treble] [G,D]2 [G,DG]2 [^G,B,=F]6 | %16
[M:4/4] [A,DF]2 [A,DF][A,DF][K:bass] [E,B,]2 [A,C]2 |[M:7/8] [D,D]-[D,D]-[D,D]- [D,D]3 z |] %18
V:3
 x8 | x8 | x8 | x8 |[M:7/8] x7 |[M:1/8] x |[M:4/4] x8 | x8 | x8 | x8 | x8 | x8 | x8 | %13
 [^Ge]2 [Gd]2 z2 =G2 | x8 |[M:5/4] x10 |[M:4/4] x8 |[M:7/8] x7 |] %18
V:4
 x8 | x8 | x8 | x8 |[M:7/8] x7 |[M:1/8] x |[M:4/4] x8 | x8 | x8 | x8 | x8 | x8 | x8 | %13
 [E,E]2 [E,E]2[K:treble] [A,E]4 | x8 |[M:5/4][K:treble] x10 |[M:4/4] x4[K:bass] x4 |[M:7/8] x7 |] %18

